src/components/Icon/assets/volume-off.svg

<svg width="24" height="24" viewBox="0 0 24 24" fill="none" xmlns="http://www.w3.org/2000/svg">
<g id="volume-off">
<path id="Combined Shape" fill-rule="evenodd" clip-rule="evenodd" d="M9.76819 7.64706L13.0002 10.8791V4.41406L9.76819 7.64706ZM15.0002 12.8791L22.2532 20.1321L20.8392 21.5461H20.8382L2.4542 3.16107L3.8682 1.74707L8.3542 6.23307L12.2932 2.29307C12.4802 2.10607 12.7352 2.00007 13.0002 2.00007H14.0002C14.5522 2.00007 15.0002 2.44807 15.0002 3.00007V12.8791ZM8.7072 15.2931L13.0002 19.5861V15.1211L15.0002 17.1211V21.0001C15.0002 21.5521 14.5522 22.0001 14.0002 22.0001H13.0002C12.7352 22.0001 12.4802 21.8951 12.2932 21.7071L7.5862 17.0001H3.0002C2.4482 17.0001 2.0002 16.5521 2.0002 16.0001V8.00006C2.0002 7.44806 2.4482 7.00006 3.0002 7.00006H4.8792L6.8792 9.00006H4.0002V15.0001H8.0002C8.2652 15.0001 8.5202 15.1061 8.7072 15.2931Z" fill="#242428"/>
</g>
</svg>

<svg xmlns="http://www.w3.org/2000/svg" width="24" height="24" fill="none" viewBox="0 0 24 24">
    <path fill="#65676A" fill-rule="evenodd" d="M9.768 7.647L13 10.88V4.414L9.768 7.647zM15 12.88l7.253 7.253-1.414 1.414L2.453 3.161l1.414-1.414 4.486 4.486 3.94-3.94C12.48 2.106 12.734 2 13 2h1c.552 0 1 .448 1 1v9.88zm-6.293 2.414L13 19.586v-4.465l2 2v3.88c0 .551-.448 1-1 1h-1c-.265 0-.52-.106-.707-.294L7.586 17H3c-.552 0-1-.448-1-1V8c0-.552.448-1 1-1h1.88l2 2H4v6h4c.265 0 .52.106.707.293z" clip-rule="evenodd"/>
</svg>
